src/assets/filled/Cube3d.svg

<svg width="24" height="24" viewBox="0 0 24 24"  xmlns="http://www.w3.org/2000/svg">
<path d="M19.3299 5.68027L13.0599 2.30027C12.3999 1.94027 11.5999 1.94027 10.9399 2.30027L4.66993 5.68027C4.20993 5.93027 3.92993 6.41027 3.92993 6.96027C3.92993 7.50027 4.20993 7.99027 4.66993 8.24027L10.9399 11.6203C11.2699 11.8003 11.6399 11.8903 11.9999 11.8903C12.3599 11.8903 12.7299 11.8003 13.0599 11.6203L19.3299 8.24027C19.7899 7.99027 20.0699 7.51027 20.0699 6.96027C20.0699 6.41027 19.7899 5.93027 19.3299 5.68027Z" />
<path d="M9.91 12.79L4.07 9.87C3.62 9.65 3.1 9.67 2.68 9.93C2.25 10.2 2 10.65 2 11.15V16.66C2 17.61 2.53 18.47 3.38 18.9L9.21 21.82C9.41 21.92 9.63 21.97 9.85 21.97C10.11 21.97 10.37 21.9 10.6 21.76C11.03 21.5 11.28 21.04 11.28 20.54V15.03C11.29 14.07 10.76 13.21 9.91 12.79Z" />
<path d="M21.32 9.93014C20.89 9.67014 20.37 9.64014 19.93 9.87014L14.1 12.7901C13.25 13.2201 12.72 14.0701 12.72 15.0301V20.5401C12.72 21.0401 12.97 21.5001 13.4 21.7601C13.63 21.9001 13.89 21.9701 14.15 21.9701C14.37 21.9701 14.59 21.9201 14.79 21.8201L20.62 18.9001C21.47 18.4701 22 17.6201 22 16.6601V11.1501C22 10.6501 21.75 10.2001 21.32 9.93014Z" />
</svg>

<?xml version="1.0" encoding="UTF-8"?>
<svg width="24" height="24" viewBox="0 0 24 24" xmlns="http://www.w3.org/2000/svg">
 <path d="m19.33 5.6803-6.27-3.38c-0.66-0.36-1.46-0.36-2.12 0l-6.27 3.38c-0.46 0.25-0.74 0.73-0.74 1.28 0 0.54 0.28 1.03 0.74 1.28l6.27 3.38c0.33 0.18 0.7 0.27 1.06 0.27s0.73-0.09 1.06-0.27l6.27-3.38c0.46-0.25 0.74-0.73 0.74-1.28s-0.28-1.03-0.74-1.28z"/>
 <path d="m9.91 12.79-5.84-2.92c-0.45-0.22-0.97-0.2-1.39 0.06-0.43 0.27-0.68 0.72-0.68 1.22v5.51c0 0.95 0.53 1.81 1.38 2.24l5.83 2.92c0.2 0.1 0.42 0.15 0.64 0.15 0.26 0 0.52-0.07 0.75-0.21 0.43-0.26 0.68-0.72 0.68-1.22v-5.51c0.01-0.96-0.52-1.82-1.37-2.24z"/>
 <path d="m21.32 9.9301c-0.43-0.26-0.95-0.29-1.39-0.06l-5.83 2.92c-0.85 0.43-1.38 1.28-1.38 2.24v5.51c0 0.5 0.25 0.96 0.68 1.22 0.23 0.14 0.49 0.21 0.75 0.21 0.22 0 0.44-0.05 0.64-0.15l5.83-2.92c0.85-0.43 1.38-1.28 1.38-2.24v-5.51c0-0.5-0.25-0.95-0.68-1.22z"/>
</svg>
